!!!Genre:	Skotshne
!!!Mode:	Minor
!!!Edition:	2015
!!!Listening/dance:	listening
!!!Free rhythm?:	No
!!!Secondary Modes:	13-18
!!!:	*B-:
!!!One_Mode:	no
**kern
*I"P1
*clefG2
*k[b-e-]
*g:
*M2/4
*>A
=1
8dL
(16gL
16f#XJJ)
(16gLL
16a)
16b-
16ccJJ
=2
8dd'L
8gg'J
(16ff#XLL
16gg)
16dd
16b-JJ
=3
8dL
16gL
16f#X'JJ
16g'LL
16a'
16b-'
16cc'JJ
=4
8ddL
8ggJ
8dd
8r
=5:|!
*>B
8B-L
16ddL
16b-JJ
8AL
16ccL
16aJJ
=6
8GL
16b-L
16aJJ
(16ccLL
16b-)
16a
16gJJ
=7
(16f#XLL
16a)
16cc
16ddJJ
(16ee-LL
16cc)
16a
16f#JJ
=8
(16gLL
16b-)
16dd
16ggJJ
(16bb-LL
16gg)
16dd
16b-JJ
=9
8B-L
16ddL
16b-JJ
8AL
16ccL
16aJJ
=10
8GL
16b-L
16aJJ
(16ccLL
16b-)
16a
16gJJ
=11
(16dLL
16f#X)
(16a
16ccJJ)
(16ee-LL
16cc)
16a
16f#JJ
=12
8gL
8b-J
8g
8r
*>bM
*B-:
=13!|:
*>C
8b-L
16ddL
16ffJJ
(16bb-LL
16aa)
16gg
16ffJJ
=14
(16ggLL
16ff)
16ee-
16ddJJ
(16ee-LL
16dd)
16cc
16b-JJ
=15
(16aLL
16f)
16a
16ccJJ
8.ffL
16ee-Jk
=16
(16ee-LL
16ddJJ)
4dd
8dd
=17:|!
(16aLL
16f)
16a
16ccJJ
8.ffL
16aJk
=18
(16ccLL
16b-JJ)
4b-
8b-
*>eM
*g:
=19!|:
*>D
(16ddLL
16bb-)
(16bb-
16ff#XJJ)
(16ff#LL
16gg)
(16gg
16ddJJ)
=20
(16ddLL
16ee-)
(16ee-
16ccJJ)
(16b-LL
16cc)
(16cc
16aJJ)
=21
(16dLL
16f#X)
16a
16ccJJ
(16ee-LL
16cc)
16a
16f#JJ
=22
(16gLL
16b-)
16dd
16ggJJ
(16bb-LL
16gg)
16dd
16b-JJ
=23:|!
8gL
8b-J
8g
8r
==
*-
